X: 4
T:Dick's Maggot
% Nottingham Music Database
S:Playford
M:3/2
K:G
%%MIDI gchord fzczcz
"G"g2d4B2-"D7"B2A2|"G"Bcd2"D7"ABc2"G"B4|"G"g2d4B2-"C"B2A2|\
"Am"Bcd2"D7"G2F2"G"G4:|
"D"f2a4f4d2|"G"gab2"A7"efg2"D"f4|"F#m"f2a4f2-"Bm"f2d2|"Em"def2"A7"AB^c2"D7"d4|
"G"Bcd2"G7/f"Bcd2"C/e"e4|"Am"efg2"Am7/g"efg2"D7/f+"f4|"G"g2d4B2-"C"B2c2|\
"Am"A4-"D7"A4"G"G4:|<end>
<start>
